icons/hexagon-check-outline.svg

<svg xmlns="http://www.w3.org/2000/svg" width="24" height="24" viewBox="0 0 24 24">
  <path d="M16.3174576,1 C17.4115312,1 18.4188507,1.59559898 18.9461053,2.55424375 L18.9461053,2.55424375 L23.3461053,10.5542438 C23.8412416,11.4544917 23.8412416,12.5455083 23.3461053,13.4457562 L23.3461053,13.4457562 L18.9461053,21.4457562 C18.4188507,22.404401 17.4115312,23 16.3174576,23 L16.3174576,23 L7.68254244,23 C6.58846875,23 5.58114934,22.404401 5.05389472,21.4457562 L5.05389472,21.4457562 L0.653894716,13.4457562 C0.158758351,12.5455083 0.158758351,11.4544917 0.653894716,10.5542438 L0.653894716,10.5542438 L5.05389472,2.55424375 C5.58114934,1.59559898 6.58846875,1 7.68254244,1 L7.68254244,1 Z M16.3174576,3 L7.68254244,3 C7.31785121,3 6.98207807,3.19853299 6.80632653,3.51808125 L6.80632653,3.51808125 L2.40632653,11.5180813 C2.24128108,11.8181639 2.24128108,12.1818361 2.40632653,12.4819187 L2.40632653,12.4819187 L6.80632653,20.4819187 C6.98207807,20.801467 7.31785121,21 7.68254244,21 L7.68254244,21 L16.3174576,21 C16.6821488,21 17.0179219,20.801467 17.1936735,20.4819187 L17.1936735,20.4819187 L21.5936735,12.4819187 C21.7587189,12.1818361 21.7587189,11.8181639 21.5936735,11.5180813 L21.5936735,11.5180813 L17.1936735,3.51808125 C17.0179219,3.19853299 16.6821488,3 16.3174576,3 L16.3174576,3 Z M16.6853647,8.27180001 C17.056602,8.62119983 17.1014998,9.18733072 16.808497,9.58868088 L16.7282,9.6853647 L11.0811412,15.6853647 C10.7145073,16.0749132 10.1134372,16.1027381 9.71331242,15.7688394 L9.62474118,15.6853647 L7.27180001,13.1853647 C6.89328354,12.7831909 6.91246155,12.1503165 7.3146353,11.7718 C7.68587261,11.4224002 8.25368331,11.4118643 8.63655559,11.7286314 L8.72819999,11.8146353 L10.352,13.54 L15.2718,8.3146353 C15.6503165,7.91246155 16.2831909,7.89328354 16.6853647,8.27180001 Z"/>
</svg>

<svg xmlns="http://www.w3.org/2000/svg" viewBox="0 0 24 24">
  <path d="M16.32 1a3 3 0 0 1 2.63 1.55l4.4 8c.5.9.5 2 0 2.9l-4.4 8A3 3 0 0 1 16.32 23H7.68a3 3 0 0 1-2.63-1.55l-4.4-8a3 3 0 0 1 0-2.9l4.4-8A3 3 0 0 1 7.68 1zm0 2H7.68a1 1 0 0 0-.87.52l-4.4 8a1 1 0 0 0 0 .96l4.4 8a1 1 0 0 0 .87.52h8.64a1 1 0 0 0 .87-.52l4.4-8a1 1 0 0 0 0-.96l-4.4-8a1 1 0 0 0-.87-.52zm.37 5.27a1 1 0 0 1 .12 1.32l-.08.1-5.65 6a1 1 0 0 1-1.37.08l-.09-.08-2.35-2.5a1 1 0 0 1 1.37-1.46l.09.08 1.62 1.73 4.92-5.23a1 1 0 0 1 1.42-.04z"/>
</svg>
